packages/foundations/assets/icons/functional/images/layout/zoom_out_24.svg

<svg width="24" height="24" viewBox="0 0 24 24" fill="none" xmlns="http://www.w3.org/2000/svg">
<g clip-path="url(#clip0_185_1531)">
<path fill-rule="evenodd" clip-rule="evenodd" d="M10 2.00134C14.4375 2.00134 18.0312 5.59509 18.0312 10.0013C18.0312 11.8763 17.4062 13.5638 16.3438 14.9388L21.7188 20.2826C21.9062 20.4857 22 20.7435 22 21.0013C22 21.5796 21.5749 21.9987 21.0076 21.9987C20.786 21.9987 20.5636 21.9277 20.375 21.7826L14.9375 16.3451C13.5625 17.4076 11.875 18.0326 10 18.0326C5.5938 18.0326 2 14.4388 2 10.0013C2 5.59509 5.5938 2.00134 10 2.00134ZM10 4.00134C6.6875 4.00134 4 6.68884 4 10.0013C4 13.3451 6.6875 16.0326 10 16.0326C13.3438 16.0326 16.0312 13.3451 16.0312 10.0013C16.0312 6.68884 13.3438 4.00134 10 4.00134ZM13 9.00134H7C6.4375 9.00134 6 9.43884 6 10.0013C6 10.5638 6.4375 11.0013 7 11.0013H13C13.5625 11.0013 14.0312 10.5638 14.0312 10.0013C14.0312 9.43884 13.5625 9.00134 13 9.00134Z" fill="#1A1C1F"/>
</g>
<defs>
<clipPath id="clip0_185_1531">
<rect width="24" height="24" fill="white"/>
</clipPath>
</defs>
</svg>

<svg xmlns="http://www.w3.org/2000/svg" width="24" height="24" fill="none"><g clip-path="url(#a)"><path fill="#1A1C1F" fill-rule="evenodd" d="M10 2.001c4.438 0 8.031 3.594 8.031 8a8 8 0 0 1-1.687 4.938l5.375 5.344c.187.203.281.46.281.718 0 .579-.425.998-.992.998-.222 0-.444-.071-.633-.216l-5.437-5.438A8 8 0 0 1 10 18.033c-4.406 0-8-3.594-8-8.032 0-4.406 3.594-8 8-8m0 2c-3.312 0-6 2.688-6 6 0 3.344 2.688 6.032 6 6.032A6.015 6.015 0 0 0 16.031 10c0-3.312-2.687-6-6.031-6m3 5H7c-.562 0-1 .438-1 1s.438 1 1 1h6c.563 0 1.031-.437 1.031-1s-.469-1-1.031-1" clip-rule="evenodd"/></g><defs><clipPath id="a"><path fill="#fff" d="M0 0h24v24H0z"/></clipPath></defs></svg>
